dist/svgs/crypto-icons/icons/bnb.svg

<?xml version="1.0" encoding="UTF-8" standalone="yes"?>
<svg xmlns="http://www.w3.org/2000/svg" xmlns:xlink="http://www.w3.org/1999/xlink" width="512px" height="508px" viewBox="0 0 384 381" version="1.1">
  <g id="surface1">
    <path style=" stroke:none;fill-rule:nonzero;fill:rgb(0%,0%,0%);fill-opacity:1;" d="M 117.511719 159.609375 L 191.277344 85.847656 L 265.078125 159.648438 L 308 116.726562 L 191.277344 0 L 74.59375 116.6875 Z M 44.28125 146.992188 L 87.199219 189.910156 L 44.28125 232.828125 L 1.359375 189.910156 Z M 117.511719 220.222656 L 191.277344 293.984375 L 265.078125 220.1875 L 308.023438 263.085938 L 191.277344 379.832031 L 74.589844 263.148438 L 74.527344 263.089844 Z M 381.199219 189.929688 L 338.28125 232.851562 L 295.355469 189.933594 L 338.277344 147.007812 Z M 381.199219 189.929688 "/>
    <path style=" stroke:none;fill-rule:nonzero;fill:rgb(0%,0%,0%);fill-opacity:1;" d="M 234.8125 189.894531 L 234.832031 189.894531 L 191.277344 146.339844 L 159.089844 178.527344 L 159.085938 178.527344 L 155.390625 182.226562 L 147.703125 189.914062 L 147.761719 189.976562 L 191.277344 233.492188 L 234.832031 189.9375 L 234.851562 189.914062 Z M 234.8125 189.894531 "/>
  </g>
</svg>

<svg xmlns="http://www.w3.org/2000/svg" viewBox="0 0 384 381"><path d="M117.512 159.61l73.765-73.762 73.801 73.8L308 116.727 191.277 0 74.594 116.688zm-73.23-12.618l42.917 42.918-42.918 42.918L1.36 189.91zm73.23 73.23l73.765 73.762 73.801-73.796 42.945 42.898-116.746 116.746L74.59 263.148l-.063-.058zm263.687-30.292l-42.918 42.922-42.926-42.918 42.922-42.926zm0 0"/><path d="M234.813 189.895h.019l-43.555-43.555-32.187 32.187h-.004l-3.695 3.7-7.688 7.687.059.063 43.515 43.515 43.555-43.554.02-.024zm0 0"/></svg>
